src/assets/icons/stroke/alignRight.svg

<svg xmlns="http://www.w3.org/2000/svg" width="1em" height="1em" fill="none"><path fill="currentColor" d="M21 18h-6v-2h6v2Zm0-7v2H9v-2h12Zm0-5v2H3V6h18Z"/></svg>

<svg width="1em" height="1em" viewBox="0 0 24 24" fill="none" xmlns="http://www.w3.org/2000/svg">
<path d="M21 18H15V16H21V18ZM21 11V13H9V11H21ZM21 6V8H3V6H21Z" fill="currentColor"/>
</svg>
